assets/images/ico_question.svg

<svg width="17" height="17" viewBox="0 0 17 17" fill="none" xmlns="http://www.w3.org/2000/svg">
<circle cx="8.5" cy="8.5" r="8.5" fill="#E74386"/>
<path d="M7.2197 6.71015C7.2197 7.0814 6.96098 7.34128 6.62833 7.34128C6.25872 7.34128 6 7.0814 6 6.71015C6 5.22513 7.2197 4 8.69812 4C10.2135 4 11.4332 5.22513 11.4332 6.71015C11.4332 8.00953 10.5462 9.08617 9.32645 9.38317V10.7197C9.32645 11.0538 9.03077 11.3508 8.69812 11.3508C8.36548 11.3508 8.06979 11.0538 8.06979 10.7197V8.90054C8.06979 8.52929 8.32852 8.19516 8.69812 8.19516C9.51126 8.19516 10.1765 7.5269 10.1765 6.71015C10.1765 5.89339 9.51126 5.26226 8.69812 5.26226C7.88499 5.26226 7.2197 5.89339 7.2197 6.71015Z" fill="white"/>
<path fill-rule="evenodd" clip-rule="evenodd" d="M8.7166 11.9901C9.15605 11.9901 9.5156 12.3588 9.5156 12.8095C9.5156 13.2603 9.15605 13.5881 8.7166 13.5881C8.27715 13.5881 7.9176 13.2603 7.9176 12.8095C7.9176 12.3588 8.27715 11.9901 8.7166 11.9901Z" fill="white"/>
</svg>

<svg width="17" height="17" fill="none" xmlns="http://www.w3.org/2000/svg"><circle cx="8.5" cy="8.5" r="8.5" fill="#E74386"/><path d="M7.22 6.71c0 .371-.259.631-.592.631A.602.602 0 016 6.711C6 5.224 7.22 4 8.698 4c1.515 0 2.735 1.225 2.735 2.71 0 1.3-.887 2.376-2.107 2.673v1.337a.65.65 0 01-.628.63.65.65 0 01-.628-.63V8.9c0-.37.259-.705.628-.705.813 0 1.479-.668 1.479-1.485 0-.817-.666-1.448-1.479-1.448-.813 0-1.478.631-1.478 1.448z" fill="#fff"/><path fill-rule="evenodd" clip-rule="evenodd" d="M8.717 11.99c.439 0 .799.369.799.82 0 .45-.36.778-.8.778-.439 0-.798-.328-.798-.778 0-.451.36-.82.799-.82z" fill="#fff"/></svg>
